berloni/img/garant-icon.svg

<svg width="79" height="37" viewBox="0 0 79 37" fill="none" xmlns="http://www.w3.org/2000/svg">
<path d="M49.323 28.201C48.2257 29.2983 48.2257 31.0755 49.323 32.1728C49.8717 32.7215 50.5907 32.9949 51.3099 32.9949C52.029 32.9949 52.748 32.7215 53.2967 32.1728L62.5193 22.9482L58.5456 18.9782L49.323 28.201Z" fill="#EE3425"/>
<path d="M72.3729 11.1081L76.3896 9.03129L78.4925 4.96582L76.5319 3.00519L72.4684 5.11003L70.3879 9.12307L65.5023 14.0144L67.4835 15.9994L72.3729 11.1081Z" fill="#EE3425"/>
<path d="M73.253 21.7688L72.8747 21.7313C72.1893 21.7313 71.5395 21.8718 70.9328 22.0965L59.4031 10.565C59.6279 9.95825 59.7683 9.30843 59.7683 8.62307L59.7309 8.24478C59.5324 5.3216 57.1242 3.00519 54.1505 3.00519C53.2853 3.00519 52.4745 3.21678 51.7423 3.56698L55.4744 7.29909C55.671 7.49572 55.8059 7.72789 55.8958 7.97325C56.1411 8.63613 56.0081 9.41143 55.4744 9.94698C55.1093 10.3121 54.6299 10.4957 54.1505 10.4957C53.9296 10.4957 53.7104 10.447 53.5007 10.3683C53.2554 10.2747 53.0232 10.1436 52.8265 9.94513L49.0945 6.21487C48.7443 6.94705 48.5327 7.75789 48.5327 8.62307C48.5327 11.5968 50.8491 14.005 53.7723 14.2034L54.1506 14.2409C54.8359 14.2409 55.4858 14.1004 56.0925 13.8776L67.6202 25.4073C67.3993 26.014 67.2588 26.6639 67.2588 27.3492L67.2981 27.7275C67.4929 30.6525 69.9029 32.9671 72.8766 32.9671C73.7418 32.9671 74.5545 32.7593 75.2848 32.4053L71.5527 28.6732C71.3579 28.4784 71.2212 28.2444 71.1276 28.001C70.8823 27.3381 71.0152 26.5609 71.5527 26.0254C71.9141 25.6602 72.3972 25.4767 72.8766 25.4767C73.0976 25.4767 73.3148 25.5235 73.5283 25.604C73.7736 25.6958 74.0076 25.8269 74.2005 26.0254L77.9326 29.7575C78.2847 29.0234 78.4944 28.2145 78.4944 27.3493C78.4926 24.3755 76.1761 21.9673 73.253 21.7688Z" fill="#EE3425"/>
<path d="M30.9374 6.27692C25.936 4.90654 20.9053 2.77273 16.3889 0.106229C16.149 -0.0354097 15.8513 -0.0354097 15.6115 0.106229C10.9649 2.84933 6.20596 4.8677 1.06258 6.27692C0.730314 6.36787 0.5 6.66989 0.5 7.01443V14.8273C0.5 22.8729 4.21165 28.1985 7.32544 31.2493C10.6776 34.534 14.5825 36.3505 16.0002 36.3505C17.4178 36.3505 21.3226 34.534 24.6748 31.2493C27.7886 28.1986 31.5 22.873 31.5 14.8273V7.01436C31.5 6.66989 31.2697 6.36787 30.9374 6.27692Z" fill="#EE3425"/>
<path d="M11.3145 16.4829C10.8925 16.0263 10.3311 15.775 9.73415 15.775C9.13715 15.775 8.57577 16.0263 8.15352 16.4829C7.28216 17.4256 7.28216 18.9595 8.15352 19.9022L12.2124 24.2923C12.6345 24.7488 13.1958 25.0001 13.7929 25.0001C14.3899 25.0001 14.9512 24.7488 15.3734 24.2922L23.8465 15.1271C24.7178 14.1842 24.7178 12.6504 23.8464 11.7081C23.4243 11.2515 22.863 11.0002 22.2659 11.0002C21.6688 11.0002 21.1075 11.2515 20.6853 11.7081L13.7928 19.1634L11.3145 16.4829Z" fill="white"/>
</svg>

<svg width="79" height="37" fill="none" xmlns="http://www.w3.org/2000/svg"><path d="M49.323 28.201a2.808 2.808 0 0 0 1.987 4.794 2.8 2.8 0 0 0 1.987-.822l9.222-9.225-3.973-3.97-9.223 9.223zM72.373 11.108l4.017-2.077 2.103-4.065-1.961-1.96-4.064 2.104-2.08 4.013-4.886 4.891L67.484 16l4.889-4.89z" fill="#EE3425"/><path d="M73.253 21.769l-.378-.038c-.686 0-1.335.14-1.942.365l-11.53-11.531a5.57 5.57 0 0 0 .365-1.942l-.037-.378c-.199-2.923-2.607-5.24-5.58-5.24-.866 0-1.677.212-2.409.562l3.732 3.732c.197.197.332.429.422.674a1.87 1.87 0 0 1-.422 1.974 1.867 1.867 0 0 1-1.323.549c-.221 0-.44-.049-.65-.128a1.863 1.863 0 0 1-.674-.423l-3.733-3.73a5.559 5.559 0 0 0-.561 2.408c0 2.974 2.316 5.382 5.24 5.58l.378.038c.685 0 1.335-.14 1.941-.363l11.528 11.53a5.659 5.659 0 0 0-.361 1.941l.04.378c.194 2.925 2.604 5.24 5.578 5.24a5.5 5.5 0 0 0 2.408-.562l-3.732-3.732a1.912 1.912 0 0 1-.425-.672 1.867 1.867 0 0 1 1.749-2.524c.22 0 .438.046.651.127.246.092.48.223.672.421l3.733 3.733a5.538 5.538 0 0 0 .561-2.409c-.001-2.974-2.318-5.382-5.241-5.58zM30.937 6.277C25.936 4.907 20.905 2.773 16.39.107a.764.764 0 0 0-.777 0c-4.647 2.742-9.406 4.76-14.55 6.17a.765.765 0 0 0-.562.737v7.813c0 8.046 3.712 13.371 6.825 16.422 3.353 3.285 7.257 5.101 8.675 5.101 1.418 0 5.323-1.816 8.675-5.1 3.114-3.051 6.825-8.377 6.825-16.423V7.014a.764.764 0 0 0-.563-.737z" fill="#EE3425"/><path d="M11.315 16.483a2.139 2.139 0 0 0-1.58-.708 2.14 2.14 0 0 0-1.581.708c-.872.943-.872 2.476 0 3.42l4.058 4.39a2.14 2.14 0 0 0 1.58.707 2.14 2.14 0 0 0 1.581-.708l8.473-9.165c.872-.943.872-2.477 0-3.419a2.139 2.139 0 0 0-1.58-.708 2.14 2.14 0 0 0-1.58.708l-6.893 7.455-2.478-2.68z" fill="#fff"/></svg>
